X:49
T:The Farmers Market
R:reel
C:Paul S. Cranford
O:Cape Breton Island
S:http://www.cranfordpub.com
D:currently unrecorded
B:currently unpublished in book form
Z:psc
H:                                                        copyrights Cranford Publications, SOCAN
L:1/8
Q:333
M:C|
K:D
e|f2 g2 afed|Beed e2 de|fdgb afed|Addc d2 d:|
||e|fdge fded|Beed e2 de|fdge faed|Addc d2 de|
fdge fded|Beed e2 ag|fage afed|Addc d2 d|]
